X:1
T:John Dory
M:3/4
L:1/2
K:C
 G/4G/4| A G/2| A B/2| c G/2| G C/4C/4| F E/2| D D/2| C3/2| C G/2|\
 A G/2| A/2 A/2 B/2| c G/2| Gf/4-e/4| d c/2| c/2 B| c3/2| G C/2| F E/2|\
 D D/2| C3/2| C||

